!!!SOCIAL_FUNCTION:	songs for children
!!!PDT:	1932
!!!OTL: No_139_Lullaby_(a).krn
!!!REG: Wisconsin
!!!LANG: Non-Tone
!!!LING_GROUP: Algonquin
**kern
*staff1
=1-
*clefF4
*k[f#c#g#d#]
*M2/4
4f#\
4g#\
=2||
*M3/4
[4f#\
4.f#\]
16g#\LL
16f#\JJ
=3||
*M2/4
4e\
4c#\
=4||
*M3/4
2B\
4r
=5||
*M2/4
4..e\
16f#\
=6
4e\
4c#\
=7
4B\
4c#\
=8
[2B\
=9
4B\]
4r
=10
4B\
4G#\
=11
4F#\
4E\
=12
4F#\
4E\
=13
[2E\
=14
8E\]
8r
4B\
=15
4..e\
16f#\
=16
4e\
4c#\
=17
4B\
4c#\
=18
[2B\
=19
8B\]
8r
4e\
=20||
*M3/4
4.f#\
8g#\
4f#\
=21||
*M2/4
4e\
4c#\
=22
4B\
4c#\
=23||
*M3/4
2B\
4r
=24||
*M2/4
4B\
4G#\
=25
4F#\
4E\
=26
4F#\
4E\
=27
2E\
=28
2E\
==
*-
